X:1
T:Hear and Answer Prayer
T:William James Kirkpatrick
T:Hear and Answer Prayer
T:Public Domain
T:Public Domain
C:William James Kirkpatrick
Z:Public Domain
%%score ( 1 2 ) ( 3 4 )
L:1/8
M:3/4
K:Eb
V:1 treble 
V:2 treble 
V:3 bass 
V:4 bass 
V:1
 E[EF] | [EG]2 [EG]2 [EG][FA] | [GB]2 [GB]2 [FA][EG] | [DF]3 [DF] [DB][FA] | [EG]4 E[EF] | %5
w: 1.~I am|ing, bless- èd Sav-|ior, To be more|and more like Thee;|I am pray-|
w: 2.~I am|ing, bless- èd Sav-|ior, For a faith|so clear and bright|That its eye|
w: 3.~I am|ing to be hum-|bled By the power|of grace di- vine,|To be clothed|
w: 4.~I am|ing, bless- èd Sav-|ior, And my con-|stant prayer shall be|For a per-|
 [EG]2 [EG]2 [EG][FA] | [GB]2 [GB]2 [FA][EG] | [DF]3 [DB] [DA][DF] | E4 ||"^Refrain" [GB][GB] | %10
w: that Thy Spir- it|Like a dove may|rest on me. *|||
w: see Thy glo- ry|Through the deep- est,|dark- est night. Thou|Who|est all|
w: on with meek- ness,|And to have no|will but Thine. *|||
w: con- se- cra- tion,|That shall make me|more like Thee. *|||
 [Ge]3 [Ge] [Bd][Ac] | [GB]2 [EG]2 [GB][GB] | [Ac]3 [Ae] [Ad][Ac] | [GB]4 E[EF] | %14
w: ||||
w: my weak- ness, Thou|Who know- est all|my care, While I|plead each pre-|
w: ||||
w: ||||
 [EG]2 [EG]2 [EG][FA] | [GB]2 [GB]2 [Ac][GB] | [DF]3 [DB] [DA][DF] | E4 |] %18
w: ||||
w: pro- mise, Hear, oh,|hear and an- swer|prayer. * * *||
w: ||||
w: ||||
V:2
 E x | x6 | x6 | x6 | x4 E x | x6 | x6 | x6 | E4 || x2 | x6 | x6 | x6 | x4 E x | x6 | x6 | x6 | %17
w: pray-||||ing|||||||||||||
w: pray-||||will||||know-|||||cious||||
w: pray-||||up-|||||||||||||
w: pray-||||fect|||||||||||||
 E4 |] %18
w: |
w: |
w: |
w: |
V:3
 [E,G,][E,A,] | [E,B,]2 [E,B,]2 [E,B,][E,B,] | [E,E]2 [E,E]2 [E,B,][E,B,] | %3
 [B,,B,]3 [B,,B,] [B,,B,][B,,B,] | [E,B,]4 [E,G,][E,A,] | [E,B,]2 [E,B,]2 [E,B,][E,B,] | %6
 [E,E]2 [E,E]2 [E,B,][E,B,] | [B,,B,]3 [B,,F,] [B,,F,][B,,A,] | [E,G,]4 || [E,B,][E,B,] | %10
 [E,B,]3 [E,B,] [E,B,][E,E] | [E,E]2 [E,B,]2 [E,E][E,E] | [A,E]3 [A,C] [A,D][A,E] | %13
 [E,E]4 [E,G,][E,A,] | [E,B,]2 [E,B,]2 [E,B,][E,B,] | [E,E]2 [E,E]2 [E,E][E,E] | %16
 B,3 [B,,F,] [B,,F,][B,,A,] | [E,G,]4 |] %18
V:4
 x2 | x6 | x6 | x6 | x6 | x6 | x6 | x6 | x4 || x2 | x6 | x6 | x6 | x6 | x6 | x6 | B,3 x3 | x4 |] %18

